X:16
T:Miss Ross's Fancy. Pn1801.16
Q:1/4=100
M:C
L:1/8
C:"456"
W:Hands 6 quite round, the same back agan - Promenade 3 Cu: then la Poussett.
B:Preston 24 for 1801
Z:Village Music Project, John Adams, 2017
K:D
D>E FA d>d cB|d>e dB c/d/e d/e/f|DE FB d>e f f/e/|dB AF E2B2:|
|:D>E F"_sic"c AD Fd|AD FA B/A/G/F/  Ez|D>E FA d>e fe|dB AF E2B2:|
